icons/chat-quote-line.svg

<svg width="24" height="24" fill="none" xmlns="http://www.w3.org/2000/svg"><g clip-path="url(#a)"><path d="M21 3a1 1 0 0 1 1 1v14a1 1 0 0 1-1 1H6.455L2 22.5V4a1 1 0 0 1 1-1h18Zm-1 2H4v13.385L5.763 17H20V5Zm-9.485 2.412.447.688c-1.668.903-1.639 2.352-1.639 2.664.155-.02.318-.024.48-.009a1.761 1.761 0 0 1 1.613 1.745 1.75 1.75 0 0 1-1.75 1.75c-.537 0-1.05-.245-1.374-.59-.515-.546-.792-1.16-.792-2.155 0-1.75 1.228-3.318 3.015-4.093Zm5 0 .447.688c-1.668.903-1.639 2.352-1.639 2.664.155-.02.318-.024.48-.009a1.761 1.761 0 0 1 1.613 1.745 1.75 1.75 0 0 1-1.75 1.75c-.537 0-1.05-.245-1.374-.59-.515-.546-.792-1.16-.792-2.155 0-1.75 1.228-3.318 3.015-4.093Z" /></g><defs><clipPath id="a"><path fill="#fff" d="M0 0h24v24H0z"/></clipPath></defs></svg>

<svg xmlns="http://www.w3.org/2000/svg" width="24" height="24" fill="none"><g clip-path="url(#a)"><g><path fill="#121212" d="M21 3C21.552 3 22 3.448 22 4V18C22 18.552 21.552 19 21 19H6.455L2 22.5V4C2 3.448 2.448 3 3 3H21ZM20 5H4V18.385L5.763 17H20V5ZM10.515 7.412L10.962 8.1C9.294 9.003 9.323 10.452 9.323 10.764C9.478 10.744 9.641 10.74 9.803 10.755C10.705 10.839 11.416 11.58 11.416 12.5C11.416 13.466 10.632 14.25 9.666 14.25C9.129 14.25 8.616 14.005 8.292 13.66C7.777 13.114 7.5 12.5 7.5 11.505C7.5 9.755 8.728 8.187 10.515 7.412ZM15.515 7.412L15.962 8.1C14.294 9.003 14.323 10.452 14.323 10.764C14.478 10.744 14.641 10.74 14.803 10.755C15.705 10.839 16.416 11.58 16.416 12.5C16.416 13.466 15.632 14.25 14.666 14.25C14.129 14.25 13.616 14.005 13.292 13.66C12.777 13.114 12.5 12.5 12.5 11.505C12.5 9.755 13.728 8.187 15.515 7.412Z"/></g></g><defs><clipPath id="a"><rect width="24" height="24" fill="white"/></clipPath></defs></svg>
